images/icons/contact-page/contact-github.svg

<svg viewBox="0 0 48 47" xmlns="http://www.w3.org/2000/svg"><path d="m24 0c-13.254 0-24 10.7445-24 24 0 10.6035 6.8775 19.6005 16.413 22.773 1.2.222 1.641-.5205 1.641-1.155 0-.5715-.0225-2.463-.033-4.4685-6.678 1.452-8.0865-2.832-8.0865-2.832-1.092-2.7735-2.664-3.5115-2.664-3.5115-2.178-1.4895.165-1.4595.165-1.4595 2.409.1695 3.678 2.4735 3.678 2.4735 2.1405 3.669 5.6145 2.6085 6.984 1.995.2145-1.551.837-2.61 1.524-3.21-5.331-.606-10.935-2.6655-10.935-11.8605 0-2.6205.9375-4.761 2.4735-6.4425-.249-.6045-1.071-3.045.2325-6.351 0 0 2.016-.645 6.6015 2.46 1.914-.5325 3.9675-.798 6.0075-.8085 2.0385.009 4.0935.276 6.012.8085 4.581-3.105 6.5925-2.46 6.5925-2.46 1.3065 3.306.4845 5.7465.2355 6.351 1.539 1.68 2.4705 3.822 2.4705 6.4425 0 9.2175-5.6145 11.247-10.959 11.8425.861.7455 1.6275 2.205 1.6275 4.4445 0 3.2115-.0285 5.796-.0285 6.5865 0 .639.432 1.3875 1.6485 1.152 9.531-3.177 16.3995-12.1695 16.3995-22.77 0-13.2555-10.746-24-24-24z" fill="#1399b9" fill-rule="evenodd" transform=""/></svg>

<svg viewBox="0 0 48 47" version="1.1" xmlns="http://www.w3.org/2000/svg" xmlns:xlink="http://www.w3.org/1999/xlink">
    <g stroke="none" stroke-width="1" fill="none" fill-rule="evenodd">
        <g transform="translate(-507.000000, -460.000000)" fill="#1399B9">
            <g transform="translate(232.000000, 436.000000)">
                <g transform="translate(275.000000, 24.000000)">
                    <path d="M24,5.99520433e-15 C10.746,5.99520433e-15 0,10.7445 0,24 C0,34.6035 6.8775,43.6005 16.413,46.773 C17.613,46.995 18.054,46.2525 18.054,45.618 C18.054,45.0465 18.0315,43.155 18.021,41.1495 C11.343,42.6015 9.9345,38.3175 9.9345,38.3175 C8.8425,35.544 7.2705,34.806 7.2705,34.806 C5.0925,33.3165 7.4355,33.3465 7.4355,33.3465 C9.8445,33.516 11.1135,35.82 11.1135,35.82 C13.254,39.489 16.728,38.4285 18.0975,37.815 C18.312,36.264 18.9345,35.205 19.6215,34.605 C14.2905,33.999 8.6865,31.9395 8.6865,22.7445 C8.6865,20.124 9.624,17.9835 11.16,16.302 C10.911,15.6975 10.089,13.257 11.3925,9.951 C11.3925,9.951 13.4085,9.306 17.994,12.411 C19.908,11.8785 21.9615,11.613 24.0015,11.6025 C26.04,11.6115 28.095,11.8785 30.0135,12.411 C34.5945,9.306 36.606,9.951 36.606,9.951 C37.9125,13.257 37.0905,15.6975 36.8415,16.302 C38.3805,17.982 39.312,20.124 39.312,22.7445 C39.312,31.962 33.6975,33.9915 28.353,34.587 C29.214,35.3325 29.9805,36.792 29.9805,39.0315 C29.9805,42.243 29.952,44.8275 29.952,45.618 C29.952,46.257 30.384,47.0055 31.6005,46.77 C41.1315,43.593 48,34.6005 48,24 C48,10.7445 37.254,0 24,0 L24,5.99520433e-15 Z"></path>
                </g>
            </g>
        </g>
    </g>
</svg>
